assets/svg/1F30C.svg

<svg xmlns="http://www.w3.org/2000/svg" viewBox="0 0 64 64" enable-background="new 0 0 64 64"><path fill="#152228" d="M64.002,56.95c0,3.803-3.079,6.883-6.883,6.883H7.048c-3.798,0-6.88-3.08-6.88-6.883V6.88   C0.167,3.083,3.25,0,7.048,0h50.071c3.804,0,6.883,3.083,6.883,6.88V56.95z"/><path fill="#21414c" d="m.167 48.604v8.346c0 3.803 3.083 6.883 6.88 6.883h50.07c3.804 0 6.883-3.08 6.883-6.883v-50.07c-10.901 39.595-50.08 42.1-63.834 41.724"/><g fill="#fff"><path d="m10.558 11.653c1.418 0 1.418-2.201 0-2.201-1.419 0-1.419 2.201 0 2.201l0 0"/><path d="m11.875 17.954c1.418 0 1.418-2.201 0-2.201s-1.417 2.201 0 2.201l0 0"/><path d="m22.722 16.486c1.414 0 1.414-2.195 0-2.195-1.42.0001-1.42 2.195 0 2.195l0 0"/><path d="m32.535 11.357c1.418 0 1.418-2.195 0-2.195-1.42 0-1.42 2.195 0 2.195l0 0"/><path d="m51.881 11.213c1.416 0 1.416-2.197 0-2.197-1.42 0-1.42 2.197 0 2.197l0 0"/><path d="m41.914 14.729c1.42 0 1.42-2.199 0-2.199-1.418.0001-1.418 2.199 0 2.199l0 0"/><path d="m25.07 7.695c1.414 0 1.414-2.195 0-2.195-1.418 0-1.418 2.195 0 2.195l0 0"/><path d="m18.47 10.773c1.418 0 1.418-2.201 0-2.201s-1.418 2.201 0 2.201l0 0"/><path d="m17.737 17.514c1.42 0 1.42-2.201 0-2.201-1.418 0-1.418 2.201 0 2.201l0 0"/><path d="m10.265 25.278c1.418 0 1.418-2.197 0-2.197s-1.418 2.197 0 2.197l0 0"/><path d="m31.951 17.07c1.42 0 1.42-2.199 0-2.199-1.418 0-1.418 2.199 0 2.199l0 0"/><path d="m7.186 44.913c1.418 0 1.418-2.197 0-2.197-1.416 0-1.416 2.197 0 2.197l0 0"/><path d="m45.727 9.02c1.414 0 1.414-2.199 0-2.199-1.418 0-1.418 2.199 0 2.199l0 0"/><path d="m57.15 32.17c1.418 0 1.418-2.199 0-2.199s-1.418 2.199 0 2.199l0 0"/><path d="m51.44 44.48c1.418 0 1.418-2.201 0-2.201s-1.418 2.201 0 2.201l0 0"/><path d="m39.716 50.628c1.418 0 1.418-2.197 0-2.197s-1.418 2.197 0 2.197l0 0"/><path d="m10.409 50.19c1.419 0 1.419-2.193 0-2.193-1.414-.0001-1.414 2.193 0 2.193l0 0"/><path d="m10.996 53.996c1.42 0 1.42-2.196 0-2.196-1.418 0-1.418 2.196 0 2.196l0 0"/><path d="m27.996 51.06c1.419 0 1.419-2.196 0-2.196-1.418 0-1.418 2.196 0 2.196l0 0"/><path d="m32.975 56.927c1.418 0 1.418-2.197 0-2.197-1.414-.0001-1.414 2.197 0 2.197l0 0"/><path d="m47.04 56.785c1.418 0 1.418-2.201 0-2.201s-1.418 2.201 0 2.201l0 0"/><path d="m45.87 44.913c1.42 0 1.42-2.197 0-2.197-1.418 0-1.418 2.197 0 2.197l0 0"/><path d="m55.54 41.25c1.418 0 1.418-2.197 0-2.197s-1.418 2.197 0 2.197l0 0"/><path d="m17.883 56.2c1.416 0 1.416-2.201 0-2.201-1.416 0-1.416 2.201 0 2.201l0 0"/></g><path fill="#152228" d="m34.636 16.8l-17.795 7.51-6.367 9.98 1.586 11.72 10.492 1.861 9.415-.611 7.482-2.03 6.366-2.88 6.685-4.98 3.82-5.28 1.389-8.526-6.05-5.228-8.266-2.027z"/><g fill="#45a7dd"><path d="m27.313 16.898c-14.591 4.637-24.28 15.12-21.646 23.412 2.631 8.29 16.597 11.26 31.19 6.622 14.59-4.639 24.284-15.12 21.647-23.408-2.634-8.294-16.594-11.26-31.19-6.626m10.927 27.913c-12.04 3.825-23.564 1.38-25.741-5.463-2.171-6.846 5.825-15.496 17.869-19.323 12.04-3.824 23.564-1.375 25.742 5.471 2.174 6.84-5.826 15.488-17.87 19.315"/><path d="m38.08 42.716c10.523-3.345 17.517-10.908 15.619-16.896-1.901-5.981-11.979-8.121-22.505-4.776-10.527 3.347-17.522 10.906-15.621 16.889 1.904 5.986 11.973 8.124 22.507 4.783m-7.89-20.14c8.69-2.761 17-.996 18.573 3.944 1.571 4.94-4.197 11.18-12.888 13.941-8.691 2.757-17.01.994-18.573-3.945-1.571-4.939 4.203-11.179 12.888-13.94"/><path d="m29.756 24.58c-6.77 2.151-11.271 7.02-10.04 10.862 1.219 3.847 7.699 5.227 14.467 3.074 6.772-2.151 11.269-7.02 10.04-10.862-1.221-3.847-7.7-5.222-14.468-3.074m5.068 12.954c-5.588 1.771-10.935.636-11.942-2.54-1.01-3.175 2.704-7.186 8.289-8.963 5.586-1.777 10.933-.637 11.945 2.538 1.01 3.176-2.705 7.187-8.292 8.965"/><path d="m34.675 36.08c4.403-1.398 7.336-4.565 6.537-7.07-.797-2.502-5.01-3.402-9.418-2-4.407 1.398-7.336 4.565-6.543 7.07.798 2.508 5.02 3.401 9.424 1.999m-3.303-8.429c3.638-1.156 7.12-.418 7.78 1.653.652 2.066-1.765 4.677-5.399 5.833-3.639 1.155-7.119.418-7.776-1.653-.658-2.066 1.76-4.681 5.395-5.833"/></g><path fill="#fff" d="m34.764 30.695c-.267-.84-1.685-1.14-3.164-.67-.144.047-.284.095-.414.152l0 0-.004.004c-.221.093-.432.201-.625.317l0 0-.004.004c-.169.106-.326.223-.467.343l0 0 0 0c-.158.138-.29.278-.402.424v.004l0 0c-.278.375-.391.769-.278 1.128.267.838 1.684 1.14 3.163.668 1.477-.466 2.46-1.529 2.195-2.374"/></svg>

<?xml version="1.0" encoding="UTF-8" standalone="no"?>
<!-- Generator: Adobe Illustrator 16.0.0, SVG Export Plug-In . SVG Version: 6.00 Build 0)  -->

<svg
   xmlns:dc="http://purl.org/dc/elements/1.1/"
   xmlns:cc="http://creativecommons.org/ns#"
   xmlns:rdf="http://www.w3.org/1999/02/22-rdf-syntax-ns#"
   xmlns:svg="http://www.w3.org/2000/svg"
   xmlns="http://www.w3.org/2000/svg"
   xmlns:sodipodi="http://sodipodi.sourceforge.net/DTD/sodipodi-0.dtd"
   xmlns:inkscape="http://www.inkscape.org/namespaces/inkscape"
   version="1.1"
   id="Layer_1"
   x="0px"
   y="0px"
   width="64px"
   height="64px"
   viewBox="0 0 64 64"
   enable-background="new 0 0 64 64"
   xml:space="preserve"
   inkscape:version="0.48.5 r10040"
   sodipodi:docname="1F30C.svg"
   inkscape:export-filename="D:\TESTINGEMOJI\SVGTEST\1F30C.png"
   inkscape:export-xdpi="90"
   inkscape:export-ydpi="90"><metadata
   id="metadata8829"><rdf:RDF><cc:Work
       rdf:about=""><dc:format>image/svg+xml</dc:format><dc:type
         rdf:resource="http://purl.org/dc/dcmitype/StillImage" /><dc:title></dc:title></cc:Work></rdf:RDF></metadata><defs
   id="defs8827" /><sodipodi:namedview
   pagecolor="#ffffff"
   bordercolor="#666666"
   borderopacity="1"
   objecttolerance="10"
   gridtolerance="10"
   guidetolerance="10"
   inkscape:pageopacity="0"
   inkscape:pageshadow="2"
   inkscape:window-width="640"
   inkscape:window-height="480"
   id="namedview8825"
   showgrid="false"
   inkscape:zoom="3.6875"
   inkscape:cx="32"
   inkscape:cy="32"
   inkscape:window-x="546"
   inkscape:window-y="320"
   inkscape:window-maximized="0"
   inkscape:current-layer="Layer_1" />
<g
   id="g8709">
	<path
   fill="#152228"
   d="M64.002,56.95c0,3.803-3.079,6.883-6.883,6.883H7.048c-3.798,0-6.88-3.08-6.88-6.883V6.88   C0.167,3.083,3.25,0,7.048,0h50.071c3.804,0,6.883,3.083,6.883,6.88V56.95z"
   id="path8711" />
	<path
   fill="#21414C"
   d="M0.167,48.604v8.346c0,3.803,3.083,6.883,6.88,6.883h50.071c3.804,0,6.883-3.08,6.883-6.883V6.88   C53.1,46.475,13.919,48.983,0.167,48.604z"
   id="path8713" />
	<g
   id="g8715">
		<path
   fill="#FFFFFF"
   d="M10.558,11.653c1.418,0,1.418-2.201,0-2.201C9.139,9.452,9.139,11.653,10.558,11.653L10.558,11.653z"
   id="path8717" />
	</g>
	<g
   id="g8719">
		<path
   fill="#FFFFFF"
   d="M11.875,17.954c1.418,0,1.418-2.201,0-2.201S10.458,17.954,11.875,17.954L11.875,17.954z"
   id="path8721" />
	</g>
	<g
   id="g8723">
		<path
   fill="#FFFFFF"
   d="M22.722,16.486c1.414,0,1.414-2.195,0-2.195C21.302,14.292,21.302,16.486,22.722,16.486L22.722,16.486z"
   id="path8725" />
	</g>
	<g
   id="g8727">
		<path
   fill="#FFFFFF"
   d="M32.535,11.357c1.418,0,1.418-2.195,0-2.195C31.115,9.162,31.115,11.357,32.535,11.357L32.535,11.357z"
   id="path8729" />
	</g>
	<g
   id="g8731">
		<path
   fill="#FFFFFF"
   d="M51.881,11.213c1.416,0,1.416-2.197,0-2.197C50.461,9.016,50.461,11.213,51.881,11.213L51.881,11.213z"
   id="path8733" />
	</g>
	<g
   id="g8735">
		<path
   fill="#FFFFFF"
   d="M41.914,14.729c1.42,0,1.42-2.199,0-2.199C40.496,12.531,40.496,14.729,41.914,14.729L41.914,14.729z"
   id="path8737" />
	</g>
	<g
   id="g8739">
		<path
   fill="#FFFFFF"
   d="M25.067,7.695c1.414,0,1.414-2.195,0-2.195C23.649,5.5,23.649,7.695,25.067,7.695L25.067,7.695z"
   id="path8741" />
	</g>
	<g
   id="g8743">
		<path
   fill="#FFFFFF"
   d="M18.47,10.773c1.418,0,1.418-2.201,0-2.201S17.052,10.773,18.47,10.773L18.47,10.773z"
   id="path8745" />
	</g>
	<g
   id="g8747">
		<path
   fill="#FFFFFF"
   d="M17.737,17.514c1.42,0,1.42-2.201,0-2.201C16.319,15.313,16.319,17.514,17.737,17.514L17.737,17.514z"
   id="path8749" />
	</g>
	<g
   id="g8751">
		<path
   fill="#FFFFFF"
   d="M10.265,25.278c1.418,0,1.418-2.197,0-2.197S8.847,25.278,10.265,25.278L10.265,25.278z"
   id="path8753" />
	</g>
	<g
   id="g8755">
		<path
   fill="#FFFFFF"
   d="M31.951,17.074c1.42,0,1.42-2.199,0-2.199C30.533,14.875,30.533,17.074,31.951,17.074L31.951,17.074z"
   id="path8757" />
	</g>
	<g
   id="g8759">
		<path
   fill="#FFFFFF"
   d="M7.186,44.913c1.418,0,1.418-2.197,0-2.197C5.77,42.716,5.77,44.913,7.186,44.913L7.186,44.913z"
   id="path8761" />
	</g>
	<g
   id="g8763">
		<path
   fill="#FFFFFF"
   d="M45.727,9.016c1.414,0,1.414-2.199,0-2.199C44.309,6.817,44.309,9.016,45.727,9.016L45.727,9.016z"
   id="path8765" />
	</g>
	<g
   id="g8767">
		<path
   fill="#FFFFFF"
   d="M57.152,32.167c1.418,0,1.418-2.199,0-2.199S55.734,32.167,57.152,32.167L57.152,32.167z"
   id="path8769" />
	</g>
	<g
   id="g8771">
		<path
   fill="#FFFFFF"
   d="M51.439,44.476c1.418,0,1.418-2.201,0-2.201S50.021,44.476,51.439,44.476L51.439,44.476z"
   id="path8773" />
	</g>
	<g
   id="g8775">
		<path
   fill="#FFFFFF"
   d="M39.716,50.628c1.418,0,1.418-2.197,0-2.197S38.298,50.628,39.716,50.628L39.716,50.628z"
   id="path8777" />
	</g>
	<g
   id="g8779">
		<path
   fill="#FFFFFF"
   d="M10.409,50.187c1.419,0,1.419-2.193,0-2.193C8.995,47.993,8.995,50.187,10.409,50.187L10.409,50.187z"
   id="path8781" />
	</g>
	<g
   id="g8783">
		<path
   fill="#FFFFFF"
   d="M10.996,53.996c1.42,0,1.42-2.196,0-2.196C9.578,51.8,9.578,53.996,10.996,53.996L10.996,53.996z"
   id="path8785" />
	</g>
	<g
   id="g8787">
		<path
   fill="#FFFFFF"
   d="M27.996,51.065c1.419,0,1.419-2.196,0-2.196C26.578,48.869,26.578,51.065,27.996,51.065L27.996,51.065z"
   id="path8789" />
	</g>
	<g
   id="g8791">
		<path
   fill="#FFFFFF"
   d="M32.975,56.927c1.418,0,1.418-2.197,0-2.197C31.561,54.729,31.561,56.927,32.975,56.927L32.975,56.927z"
   id="path8793" />
	</g>
	<g
   id="g8795">
		<path
   fill="#FFFFFF"
   d="M47.044,56.785c1.418,0,1.418-2.201,0-2.201S45.626,56.785,47.044,56.785L47.044,56.785z"
   id="path8797" />
	</g>
	<g
   id="g8799">
		<path
   fill="#FFFFFF"
   d="M45.87,44.913c1.42,0,1.42-2.197,0-2.197C44.452,42.716,44.452,44.913,45.87,44.913L45.87,44.913z"
   id="path8801" />
	</g>
	<g
   id="g8803">
		<path
   fill="#FFFFFF"
   d="M55.541,41.249c1.418,0,1.418-2.197,0-2.197S54.123,41.249,55.541,41.249L55.541,41.249z"
   id="path8805" />
	</g>
	<g
   id="g8807">
		<path
   fill="#FFFFFF"
   d="M17.883,56.197c1.416,0,1.416-2.201,0-2.201C16.467,53.996,16.467,56.197,17.883,56.197L17.883,56.197z"
   id="path8809" />
	</g>
	<g
   id="g8811">
		<polygon
   fill="#152228"
   points="34.636,16.8 16.841,24.31 10.474,34.29 12.065,46.01 22.552,47.871 31.967,47.26 39.449,45.225     45.815,42.346 52.502,37.369 56.322,32.091 57.709,23.564 51.656,18.336 43.394,16.309   "
   id="polygon8813" />
		<path
   fill="#45A7DD"
   d="M27.313,16.898c-14.591,4.637-24.28,15.12-21.646,23.412c2.631,8.29,16.597,11.26,31.186,6.622    c14.59-4.639,24.284-15.117,21.647-23.408C55.866,15.23,41.906,12.264,27.313,16.898z M38.24,44.811    c-12.043,3.825-23.564,1.38-25.741-5.463c-2.171-6.846,5.825-15.496,17.869-19.323c12.043-3.824,23.564-1.375,25.742,5.471    C58.284,32.336,50.284,40.984,38.24,44.811z"
   id="path8815" />
		<path
   fill="#45A7DD"
   d="M38.08,42.716c10.523-3.345,17.517-10.908,15.619-16.896c-1.901-5.981-11.979-8.121-22.505-4.776    C20.667,24.391,13.672,31.95,15.573,37.933C17.477,43.919,27.546,46.057,38.08,42.716z M30.19,22.574    c8.69-2.761,17.005-0.996,18.573,3.944c1.571,4.94-4.197,11.18-12.888,13.941c-8.691,2.757-17.007,0.994-18.573-3.945    C15.731,31.575,21.505,25.335,30.19,22.574z"
   id="path8817" />
		<path
   fill="#45A7DD"
   d="M29.756,24.58c-6.77,2.151-11.271,7.015-10.043,10.862c1.219,3.847,7.699,5.227,14.467,3.074    c6.772-2.151,11.269-7.015,10.044-10.862C43.003,23.807,36.524,22.432,29.756,24.58z M34.824,37.534    c-5.588,1.771-10.935,0.636-11.942-2.54c-1.008-3.175,2.704-7.186,8.289-8.963c5.586-1.777,10.933-0.637,11.945,2.538    C44.123,31.745,40.411,35.756,34.824,37.534z"
   id="path8819" />
		<path
   fill="#45A7DD"
   d="M34.675,36.083c4.403-1.398,7.336-4.565,6.537-7.07c-0.797-2.502-5.011-3.402-9.418-2    c-4.407,1.398-7.336,4.565-6.543,7.071C26.049,36.592,30.267,37.485,34.675,36.083z M31.372,27.654    c3.638-1.156,7.12-0.418,7.78,1.653c0.652,2.066-1.765,4.677-5.399,5.833c-3.639,1.155-7.119,0.418-7.776-1.653    C25.319,31.421,27.737,28.806,31.372,27.654z"
   id="path8821" />
		<path
   fill="#FFFFFF"
   d="M34.764,30.695c-0.267-0.84-1.685-1.14-3.164-0.67c-0.144,0.047-0.284,0.095-0.414,0.152l0,0l-0.004,0.004    c-0.221,0.093-0.432,0.201-0.625,0.317l0,0l-0.004,0.004c-0.169,0.106-0.326,0.223-0.467,0.343l0,0l0,0    c-0.158,0.138-0.29,0.278-0.402,0.424v0.004l0,0c-0.278,0.375-0.391,0.769-0.278,1.128c0.267,0.838,1.684,1.14,3.163,0.668    C34.046,32.603,35.029,31.54,34.764,30.695z"
   id="path8823" />
	</g>
</g>
</svg>
